X:41
T:Caravan
C:D. Ellington, Irving Mills, Juan Tizol
N:TablEdited by Kim Davis
L:1/8
Q:1/4=250
M:4/4
K:Ab
z8 |: "Dbdim"c8 | "Dbdim"z8 | "Dbdim"z2 d2 "C7"c2 G2 | "Dbdim"B2 c2 "C7"=e2 G2 | 
"Dbdim"B8 | "Dbdim"z8 | "Dbdim"z2 c2 "C7"d2 c2 | "Dbdim"d2 c2 "C7"=B2 =E2 | "Dbdim"B8 | 
"Dbdim"z8 | "Dbdim"z2 c2 "C7"B2 =B2 | "Dbdim"=A2 G2 "C7"_A2 =E2 | "Fm6"F8 | "Fm6"z8 | 
"Fm6"z8 | "Fm6"z8 :| "F7"f8 | "F7"z2 _g2 f2 c2 | "F7b9"e8 | "F+"d8 | "Bb7"f8 | 
"Bb7"z2 g2 f2 c2 | "Fm7/Bb"e8 | "Bb7"=d8 | "Eb7"e8 | "Eb7"z2 f2 e2 c2 | "Eb7"B8 | 
"Eb7"f4 "Gdim7"=e4 | "Ab"e6 F2 | "Ab"z2 G2 A2 B2 | "C7"c8 | "Cdim7"z4 "C7"c4 | 


